X: 2
T:When You And I Were Young Maggie
% Nottingham Music Database
S:via PR
M:2/4
L:1/4
K:G
d/2|"G"d B/2A/2|"G7"G A/2G/2|"C"G2|E/2GE/2|"G"D G/2A/2|"Em"B d/2B/2|"Am"A2-|\
"D7"A3/2d/2|
"G"d B/2A/2|"G7"G A/2G/2|"C"G2|E/2GE/2|"G"D G/2B/2|"D7"d A/2B/2|"G"G2-|G3/2e/2\
||
"C"e c/2e/2|e c/2e/2|"G"d2|B/2dB/2|"D"A d|"A7"d/2^c/2 f/2e/2|"D"d2-|\
"D7"d3/2d/2|
"G"d B/2A/2|"G7"G A/2G/2|"C"G2|E/2GE/2|"G"D/2D/2 G/2B/2|"D7"d A/2B/2|"G"G2-|\
G3/2||<end>
<start>
